X: 8012
T:Waltz
O:Sweden
M:3/4
R:Waltz
K:Dmin
EG|\
F4 E2| D2 ^C2 D2| ^CD E2 D2| ^CD EF GE|\
F4 E2| D2 ^C2 D2| ^CE A2 C2| D4 ::
A,2|\
A,2 F2 FF| F2 E2 D2| D2 GAGF| E2 F2 G2| \
AB AG F2| EG FE D^C| DF E^C EC| D4 :|
